packages/tokens/icons/recommender/size16Px.svg

<svg viewBox="0 0 16 16" fill="none" xmlns="http://www.w3.org/2000/svg" width="1em" height="1em"><path d="M8.57948 5.98183L9 5.12978L9.42052 5.98183L9.86888 5.76055L9.42052 5.98183C9.52976 6.20319 9.74094 6.35662 9.98522 6.39211L10.9255 6.52875L10.2451 7.19198L10.5941 7.55002L10.2451 7.19198C10.0683 7.36428 9.98768 7.61253 10.0294 7.85583L10.19 8.79233L9.34901 8.35018C9.13051 8.23531 8.86949 8.23531 8.65099 8.35018L7.80996 8.79233L7.97059 7.85583C8.01231 7.61253 7.93165 7.36428 7.75489 7.19198L7.07448 6.52875L8.01478 6.39211C8.25906 6.35662 8.47024 6.20319 8.57948 5.98183ZM11.4268 6.60159C11.4267 6.60157 11.4266 6.60156 11.4265 6.60154L11.4268 6.60159ZM6.57319 6.60159L6.57351 6.60154C6.5734 6.60156 6.5733 6.60157 6.57319 6.60159L6.53724 6.35419L6.57319 6.60159Z" stroke="currentColor" stroke-linejoin="round"/><circle cx="5" cy="5" r="4.5" transform="matrix(-1 0 0 1 14 2)" stroke="currentColor"/><path d="M3 13L5.83063 10.1738" stroke="currentColor" stroke-linecap="round" stroke-linejoin="round"/></svg>

<svg xmlns="http://www.w3.org/2000/svg" fill="none" viewBox="0 0 16 16" width="1em" height="1em"><path stroke="currentColor" stroke-linejoin="round" d="M8.58 5.982 9 5.13l.42.852.449-.221-.448.22a.75.75 0 0 0 .564.411l.94.137-.68.663.35.358-.35-.358a.75.75 0 0 0-.216.664l.161.936-.841-.442a.75.75 0 0 0-.698 0l-.841.442.16-.936a.75.75 0 0 0-.215-.664l-.68-.663.94-.137a.75.75 0 0 0 .564-.41Zm2.847.62Zm-4.854 0-.036-.248.036.248Z"/><circle cx="5" cy="5" r="4.5" stroke="currentColor" transform="matrix(-1 0 0 1 14 2)"/><path stroke="currentColor" stroke-linecap="round" stroke-linejoin="round" d="m3 13 2.83-2.826"/></svg>
